assets/cursors/south-west.svg

<svg height="13.5pt" viewBox="0 0 13.5 13.5" width="13.5pt" xmlns="http://www.w3.org/2000/svg" xmlns:xlink="http://www.w3.org/1999/xlink"><clipPath id="a"><path d="m1 0h12.5v13h-12.5zm0 0"/></clipPath><path d="m9.648438.636719s3 3 3 3-4.523438 4.523437-4.523438 4.523437 3 3 3 3h-9v-9s3 3 3 3 4.523438-4.523437 4.523438-4.523437zm0 0" fill="#ebebeb" fill-rule="evenodd"/><g clip-path="url(#a)"><path d="m19.296875 1.273438s6 6 6 6-9.046875 9.046874-9.046875 9.046874 6 6 6 6h-18v-18s6 6 6 6 9.046875-9.046874 9.046875-9.046874zm0 0" fill="none" stroke="#000" stroke-linecap="square" stroke-miterlimit="1.414214" transform="scale(.5)"/></g></svg>

<?xml version="1.0" encoding="UTF-8"?>
<svg xmlns="http://www.w3.org/2000/svg" xmlns:xlink="http://www.w3.org/1999/xlink" width="13.5pt" height="13.5pt" viewBox="0 0 13.5 13.5" version="1.1">
<defs>
<clipPath id="clip1">
  <path d="M 1 0 L 13.5 0 L 13.5 13 L 1 13 Z M 1 0 "/>
</clipPath>
</defs>
<g id="surface1">
<path style=" stroke:none;fill-rule:evenodd;fill:rgb(92.155457%,92.155457%,92.155457%);fill-opacity:1;" d="M 9.648438 0.636719 C 9.648438 0.636719 12.648438 3.636719 12.648438 3.636719 C 12.648438 3.636719 8.125 8.160156 8.125 8.160156 C 8.125 8.160156 11.125 11.160156 11.125 11.160156 C 11.125 11.160156 2.125 11.160156 2.125 11.160156 C 2.125 11.160156 2.125 2.160156 2.125 2.160156 C 2.125 2.160156 5.125 5.160156 5.125 5.160156 C 5.125 5.160156 9.648438 0.636719 9.648438 0.636719 Z M 9.648438 0.636719 "/>
<g clip-path="url(#clip1)" clip-rule="nonzero">
<path style="fill:none;stroke-width:1;stroke-linecap:square;stroke-linejoin:miter;stroke:rgb(0%,0%,0%);stroke-opacity:1;stroke-miterlimit:1.414214;" d="M 19.296875 1.273438 C 19.296875 1.273438 25.296875 7.273438 25.296875 7.273438 C 25.296875 7.273438 16.25 16.320312 16.25 16.320312 C 16.25 16.320312 22.25 22.320312 22.25 22.320312 C 22.25 22.320312 4.25 22.320312 4.25 22.320312 C 4.25 22.320312 4.25 4.320312 4.25 4.320312 C 4.25 4.320312 10.25 10.320312 10.25 10.320312 C 10.25 10.320312 19.296875 1.273438 19.296875 1.273438 Z M 19.296875 1.273438 " transform="matrix(0.5,0,0,0.5,0,0)"/>
</g>
</g>
</svg>
